!!!COM: Giovannelli, Ruggero
!!!CDT: ~1560///-1625/01/07/
!!!OTL: Suauissime Iesu
!!!OTL2: Soavissimi fiori
!!!ONM: No. 15
!!!SMS: Musica tolta da i madrigali di Claudio Monteverdi, e d'altri autori, e fatta spirituale
!!!PPR: A. Coppini, ed.
!!!PPP: Milan
!!!PDT: 1607
!!!URL: http://www.jpj.dk/coppini.htm
!!!AIN: contrafacta
**kern	**kern	**kern	**kern	**kern
*staff5	*staff4	*staff3	*staff2	*staff1
*Ivox	*Ivox	*Ivox	*Ivox	*Ivox
!basso	!tenore	!alto	!quinto	!canto
*clefF4	*clefGv2	*clefG2	*clefG2	*clefG2
*k[b-]	*k[b-]	*k[b-]	*k[b-]	*k[b-]
*M4/4	*M4/4	*M4/4	*M4/4	*M4/4
*MM120	*MM120	*MM120	*MM120	*MM120
=1-	=1-	=1-	=1-	=1-
1r	2r	2r	2r	2r
.	2G/	2g/	2bn\	2dd\
=2	=2	=2	=2	=2
1r	2G/	2g/	2bn\	2dd\
.	[2G/	[2g/	[2b\	[2dd\
=3	=3	=3	=3	=3
1r	4G/]	4g/]	4b\]	4dd\]
.	4G/	4g/	4bn\	4dd\
.	2c\	2g/	2cc\	2ee\
=4	=4	=4	=4	=4
1r	1B-	1b-	8dd\L	8ff\L
.	.	.	8cc\J	8ee\J
.	.	.	8b-\L	8dd\L
.	.	.	8cc\J	8ee\J
.	.	.	8dd\L	8ff\L
.	.	.	8cc\J	8ee\J
.	.	.	8dd\L	8ff\L
.	.	.	8ee\J	8gg\J
=5	=5	=5	=5	=5
1r	1B-	1b-	2dd\	2ff\
.	.	.	2dd\	2ff\
=6	=6	=6	=6	=6
1r	4B-\	4b-\	4dd\	4ff\
.	8B-\	8b-\	8dd\	8ff\
.	8B-\	8b-\	8dd\	8ff\
.	4B-\	4b-\	4dd\	4ff\
.	4c\	4g/	4cc\	4ee-\
=7	=7	=7	=7	=7
1r	2d\	2f#/	2a/	2dd\
.	2d\	2f#/	2a/	2dd\
=8	=8	=8	=8	=8
1r	4d\	4f#/	4a/	4dd\
.	8d\	8f#/	8a/	8dd\
.	8d\	8f#/	8a/	8dd\
.	4d\	4f#/	4a/	4dd\
.	4c\	4g/	4cc\	4ee\
=9	=9	=9	=9	=9
1r	4.B-\	2b-\	2dd\	4ff\
.	.	.	.	4ff\
.	8A/	.	.	.
.	4G/	2b-\	2dd\	[2gg\
.	4G/	.	.	.
=10	=10	=10	=10	=10
1r	1A	4a/	4cc#\	4gg\]
.	.	4a/	2dd\	4ff\
.	.	2a/	.	2ee\
.	.	.	4cc#\	.
=11	=11	=11	=11	=11
2r	2d\	2a/	2dd\	2dd\
2D\	2d\	2f#/	2a/	2dd\
=12	=12	=12	=12	=12
2D\	2d\	2f#/	2a/	2dd\
[2D\	[2d\	[2f#/	[2a/	[2dd\
=13	=13	=13	=13	=13
4D\]	4d\]	4f#/]	4a/]	4dd\]
4D\	4d\	4f#/	4a/	4dd\
2G\	2d\	2g/	2g/	2b-\
=14	=14	=14	=14	=14
1F	1f	1c	8a/L	8cc\L
.	.	.	8b-/J	8b-\J
.	.	.	8cc\L	8a/L
.	.	.	8b-\J	8b-/J
.	.	.	8a/L	8cc\L
.	.	.	8g/J	8b-\J
.	.	.	8a/L	8cc\L
.	.	.	8b-/J	8dd\J
=15	=15	=15	=15	=15
1F	1c	1f	2a/	2cc\
.	.	.	2a/	2cc\
=16	=16	=16	=16	=16
4BB-/	4B-\	4f/	4dd\	4ff\
8BB-/	8B-\	8f/	8dd\	8ff\
8BB-/	8B-\	8f/	8dd\	8ff\
4BB-/	4d\	4b-\	4dd\	4ff\
4C/	4G/	4g/	4cc\	4ee-\
=17	=17	=17	=17	=17
2D\	2d\	2f#/	2a/	2dd\
2D\	2d\	2f#/	2a/	2dd\
=18	=18	=18	=18	=18
4G\	4d\	4g/	4b-\	4dd\
8G\	8d\	8g/	8b-\	8dd\
8G\	8d\	8g/	8b-\	8dd\
4G\	4d\	4g/	4b-\	4dd\
4F\	4f\	4a/	4a/	4dd\
=19	=19	=19	=19	=19
4.E-\	4g\	2.g/	4b-\	4.gg\
.	4G/	.	4b-\	.
8D\	.	.	.	8ff\
4C/	4G/	.	[2cc\	4ee-\
4C/	4G/	4g/	.	4ee-\
=20	=20	=20	=20	=20
1D	1d	4f#/	4cc\]	1dd
.	.	2g/	4b-\	.
.	.	.	2a/	.
.	.	4f#/	.	.
=21	=21	=21	=21	=21
2G\	[1d	4g/	1bn	1dd
.	.	4g/	.	.
2G\	.	4g/	.	.
.	.	4g/	.	.
=22	=22	=22	=22	=22
4G\	2d\]	4b-\	4r	1r
4G\	.	4g/	4dd\	.
[2B-\	4r	2f/	4dd\	.
.	4d\	.	4dd\	.
=23	=23	=23	=23	=23
2B-\]	4d\	4f/	4ff\	4r
.	4d\	4b-\	4dd\	4dd\
2G\	4B-\	[2b-\	2gg\	4dd\
.	4B-\	.	.	4dd\
=24	=24	=24	=24	=24
2F\	2f\	4b-\]	4cc\	4ff\
.	.	8a/L	4ff\	4dd\
.	.	8g/J	.	.
4F\	4f\	2a/	2ff\	2cc\
4F\	4f\	.	.	.
=25	=25	=25	=25	=25
2BB-/	2f\	4b-\	4ff\	4dd\
.	.	4b-\	4dd\	4ff\
2BB-/	4f\	[2b-\	[2dd\	[2ff\
.	4f\	.	.	.
=26	=26	=26	=26	=26
2BB-/	4B-\	4b-\]	4dd\]	4ff\]
.	4B-\	4b-\	4dd\	4ff\
2C/	4G/	4g/	4cc\	4ee-\
.	4G/	4g/	4cc\	4ee-\
=27	=27	=27	=27	=27
1D	1d	1f#	1a	1dd
=28	=28	=28	=28	=28
2D\	4d\	4f#/	4a/	4dd\
.	4d\	4f#/	4a/	4dd\
2r	4.d\	4.f#/	4.a/	4.dd\
.	8c\	8g/	8cc\	8ee\
=29	=29	=29	=29	=29
1r	4B-\	4b-\	4dd\	4ff\
.	4G/	4b-\	4dd\	4gg\
.	2A/	2a/	2cc#\	2ee\
=30	=30	=30	=30	=30
4r	2d\	4a/	4dd\	4dd\
4d\	.	4f/	4dd\	4a/
4.d\	2r	4.f/	4.dd\	4.a/
8c\	.	8g/	8ee\	8cc\
=31	=31	=31	=31	=31
4B-\	1r	4b-\	4ff\	4dd\
4G\	.	4b-\	4gg\	4dd\
2A\	.	2a/	2ee\	2cc#\
=32	=32	=32	=32	=32
2D\	4r	4a/	4dd\	2dd\
.	4d\	4a/	4dd\	.
2r	4.f\	4.a/	4.cc\	2r
.	8f\	8a/	8cc\	.
=33	=33	=33	=33	=33
1r	4f\	4a/	4cc\	1r
.	4g\	4g/	4b-\	.
.	2d\	2f/	2a/	.
=34	=34	=34	=34	=34
4r	4d\	4f/	4a/	4r
4B-\	4B-\	4b-\	4ff\	4dd\
4.F\	4.c\	4.a/	4.ff\	4.cc\
8F\	8c\	8a/	8ff\	8cc\
=35	=35	=35	=35	=35
4F\	4A/	4a/	4ff\	4cc\
4G\	4B-\	4g/	4dd\	4b-\
2D\	2d\	2f/	2dd\	2a/
=36	=36	=36	=36	=36
4D\	2d\	4f/	4dd\	4a/
4BB-/	.	4b-\	4dd\	4ff\
4.F\	2r	4.a/	4.cc\	4.ff\
8F\	.	8a/	8cc\	8ff\
=37	=37	=37	=37	=37
4F\	1r	4a/	4cc\	4ff\
4G\	.	4g/	4b-\	4dd\
2D\	.	2f/	2a/	2dd\
=38	=38	=38	=38	=38
4D\	1r	4f/	4a/	2dd\
4d\	.	4f/	4a/	.
4B-\	.	4g/	4b-\	4r
4G\	.	4b-\	4dd\	4gg\
=39	=39	=39	=39	=39
1A	1r	1a	4cc#\	4ee\
.	.	.	2dd\	4ff\
.	.	.	.	2ee\
.	.	.	4cc#\	.
=40	=40	=40	=40	=40
4D\	4r	4a/	4dd\	4dd\
4G\	4B-\	4d/	4g/	4b-\
4F\	4A/	4f/	4a/	4cc\
[4E-\	[4G/	[4g/	[4b-\	[4ee-\
=41	=41	=41	=41	=41
8E-\]	8G/]	8g/]	8b-\]	8ee-\]
8E-\	8G/	8g/	8b-\	8ee-\
4C/	4G/	4g/	4cc\	4ee-\
2D\	2d\	2f#/	2a/	2dd\
=42	=42	=42	=42	=42
4G\	4d\	4g/	4b-\	4dd\
4G\	4B-\	4d/	4b-\	4g/
4F\	4A/	4f/	4cc\	4a/
[4E-\	[4G/	[4g/	[4ee-\	[4b-\
=43	=43	=43	=43	=43
8E-\]	8G/]	8g/]	8ee-\]	8b-\]
8E-\	8G/	8g/	8ee-\	8b-\
4C/	4G/	4g/	4ee-\	4cc\
2D\	2d\	2f#/	2dd\	2a/
=44	=44	=44	=44	=44
4G\	2d\	4g/	4dd\	4b-\
4B-\	.	4d/	4b-\	4dd\
4.F\	2r	4.f/	4.a/	4.cc\
8F\	.	8f/	8a/	8cc\
=45	=45	=45	=45	=45
4F\	1r	4f/	4a/	4cc\
4G\	.	4d/	4g/	4b-\
2D\	.	2d/	2f/	2a/
=46	=46	=46	=46	=46
4D\	4r	4d/	4f/	4a/
4BB-/	4B-\	4d/	4ff\	4dd\
4.F\	4.c\	4.a/	4.ff\	4.cc\
8F\	8c\	8a/	8ff\	8cc\
=47	=47	=47	=47	=47
4F\	4A/	4a/	4ff\	4cc\
4G\	4B-\	4g/	4dd\	4b-\
2D\	2d\	2f/	2dd\	2a/
=48	=48	=48	=48	=48
4D\	1d	4f/	4dd\	2a/
4d\	.	4f/	4a/	.
4B-\	.	4g/	4b-\	4r
4G\	.	4b-\	4dd\	4gg\
=49	=49	=49	=49	=49
1A	1r	1a	4cc#\	4ee\
.	.	.	2dd\	4ff\
.	.	.	.	2ee\
.	.	.	4cc#\	.
=50	=50	=50	=50	=50
2D\	4r	4a/	2dd\	4dd\
.	4d\	4f/	.	4a/
2r	4B-\	4d/	4r	4b-\
.	4G/	4d/	4gg\	4dd\
=51	=51	=51	=51	=51
1r	2A/	1a	4ee\	4cc#\
.	.	.	4ff\	2dd\
.	2A/	.	2ee\	.
.	.	.	.	4cc#\
=52	=52	=52	=52	=52
4r	4r	4d/	4dd\	4dd\
4G\	4B-\	4d/	4b-\	4g/
4F\	4A/	4f/	4cc\	4a/
[4E-\	[4G/	[4g/	[4ee-\	[4b-\
=53	=53	=53	=53	=53
8E-\]	8G/]	8g/]	8ee-\]	8b-\]
8E-\	8G/	8g/	8ee-\	8b-\
4C/	4G/	4g/	4ee-\	4cc\
2D\	2d\	2f#/	2dd\	2a/
=54	=54	=54	=54	=54
2G\	2d\	2g/	1dd	2g/
2G\	2B-\	2d/	.	2b-\
=55	=55	=55	=55	=55
2F\	2A/	2f/	2r	2cc\
[2E-\	[2G/	[2g/	2b-\	[2ee-\
=56	=56	=56	=56	=56
4E-\]	4G/]	4g/]	2b-\	4ee-\]
4E-\	4G/	4g/	.	4ee-\
2C/	2G/	2g/	[2cc\	2ee-\
=57	=57	=57	=57	=57
[1D	[1d	2f#/	4cc\]	[1dd
.	.	.	4cc\	.
.	.	[2g/	2b-\	.
=58	=58	=58	=58	=58
1D]	1d]	4g/]	1a	1dd]
.	.	8f#/L	.	.
.	.	8e/J	.	.
.	.	2f#/	.	.
=59	=59	=59	=59	=59
1G;	1d;	1g;	1bn;	1dd;
==	==	==	==	==
*-	*-	*-	*-	*-
!!!ENC: Craig Stuart Sapp
!!!END: 2004/12/10/
